; generated by SuperSlicer 2.3.56 on 2021-09-26 at 03:12:48 UTC

; 

; external perimeters extrusion width = 0.52mm
; perimeters extrusion width = 0.57mm
; infill extrusion width = 0.55mm
; solid infill extrusion width = 0.57mm
; top infill extrusion width = 0.55mm
; support material extrusion width = 0.50mm
; first layer extrusion width = 0.70mm

; external perimeters extrusion width = 0.52mm
; perimeters extrusion width = 0.57mm
; infill extrusion width = 0.55mm
; solid infill extrusion width = 0.57mm
; top infill extrusion width = 0.55mm
; support material extrusion width = 0.50mm
; first layer extrusion width = 0.70mm

; external perimeters extrusion width = 0.52mm
; perimeters extrusion width = 0.57mm
; infill extrusion width = 0.55mm
; solid infill extrusion width = 0.57mm
; top infill extrusion width = 0.55mm
; support material extrusion width = 0.50mm
; first layer extrusion width = 0.70mm

; object:{"name":"patch_bed_leveling","id":"patch_bed_leveling id:0 copy 0","object_center":[-93.549999,93.549999,0.000000],"boundingbox_center":[-93.549999,93.549999,1.858172],"boundingbox_size":[27.783124,27.783124,3.716344]}
; object:{"name":"patch_bed_leveling","id":"patch_bed_leveling id:1 copy 0","object_center":[93.549999,-93.549999,0.000000],"boundingbox_center":[93.549999,-93.549999,1.858172],"boundingbox_size":[27.783124,27.783124,3.716344]}
; object:{"name":"patch_bed_leveling","id":"patch_bed_leveling id:2 copy 0","object_center":[0.000000,0.000000,0.000000],"boundingbox_center":[0.000000,0.000000,1.858172],"boundingbox_size":[27.783124,27.783124,3.716344]}
; object:{"name":"patch_bed_leveling","id":"patch_bed_leveling id:3 copy 0","object_center":[-93.549999,-93.549999,0.000000],"boundingbox_center":[-93.549999,-93.549999,1.858172],"boundingbox_size":[27.783124,27.783124,3.716344]}
; object:{"name":"patch_bed_leveling","id":"patch_bed_leveling id:4 copy 0","object_center":[93.549999,93.549999,0.000000],"boundingbox_center":[93.549999,93.549999,1.858172],"boundingbox_size":[27.783124,27.783124,3.716344]}
; Total objects to print: 5
M486 T5
; plater:{"center":[0.000000,0.000000,0.000000],"boundingbox_center":[0.000000,0.000000,1.858172],"boundingbox_size":[214.883123,214.883123,3.716344]}

G10 P0 R190 ; sets the standby temperature
G10 P0 S200 ; set temperature
;TYPE:Custom
; Call the print start macro and pass in first layer temp and bed temp.
; TODO: when we are using the right-side extruder, start there instead of running this against the wrong one
M140 S0
M568 P0 R0 S0 A0
M98 P"0:/macros/sys/start_print.g" T200 B60; call print start macro (handles loading filament, priming nozzle, etc.
M107
G21 ; set units to millimeters
G90 ; use absolute coordinates
M82 ; use absolute distances for extrusion
G92 E0
; Filament gcode
G10 P0 S200 ; set temperature
M116 ; wait for temperature to be reached
;LAYER_CHANGE
;Z:0.375
;HEIGHT:0.375
G1 Z0.375000 F12000
G1 E-2.00000 F2400
G1 X-84.721 Y84.727 F12000
G1 E0.00000 F2400
;TYPE:Skirt
;WIDTH:0.55
G1 F1800
G1 X-75.134 Y94.313 E1.03946
G1 X-74.239 Y95.520 E1.15458
G1 X-73.658 Y96.911 E1.27017
G1 X-73.428 Y98.363 E1.38294
G1 X-73.547 Y99.836 E1.49618
G1 X-74.006 Y101.233 E1.60895
G1 X-74.779 Y102.484 E1.72172
G1 X-84.298 Y112.050 E2.75636
G1 X-85.468 Y112.891 E2.86678
G1 X-86.805 Y113.442 E2.97767
G1 X-88.332 Y113.674 E3.09607
G1 X-89.863 Y113.525 E3.21401
G1 X-91.311 Y113.005 E3.33194
G1 X-92.587 Y112.147 E3.44988
G1 X-111.261 Y93.492 E5.47353
G1 X-112.158 Y92.280 E5.58912
G1 X-112.737 Y90.895 E5.70424
G1 X-112.969 Y89.355 E5.82358
G1 X-112.814 Y87.813 E5.94245
G1 X-112.283 Y86.356 E6.06133
G1 X-111.405 Y85.071 E6.18067
G1 X-101.820 Y75.518 E7.21815
G1 X-100.943 Y74.923 E7.29940
G1 X-99.978 Y74.486 E7.38064
G1 X-98.952 Y74.219 E7.46189
G1 X-97.890 Y74.129 E7.54361
G1 X-96.719 Y74.241 E7.63381
G1 X-95.596 Y74.570 E7.72354
G1 X-94.553 Y75.102 E7.81326
G1 X-93.629 Y75.819 E7.90299
G1 X-84.774 Y84.674 E8.86301
; INIT printing object patch_bed_leveling id:0 copy 0
G92 E0
G1 E-2.00000 F2400
; printing object patch_bed_leveling id:0 copy 0
M486 S0
G1 X-89.428 Y89.328 F12000
G1 E0.00000 F2400
;TYPE:External perimeter
;WIDTH:0.7
G1 F1800
G1 X-80.153 Y98.603 E1.32688
G1 X-88.497 Y106.947 E2.52056
G1 X-106.241 Y89.203 E5.05904
G1 X-97.897 Y80.859 E6.25272
G1 X-89.481 Y89.275 E7.45674
G1 X-89.558 Y89.811 F12000
G92 E0
G1 E-2.00000 F2400
G1 X-88.061 Y106.247 F12000
G1 E0.00000 F2400
;TYPE:Solid infill
;WIDTH:0.712527
G1 F1200
G1 X-105.345 Y88.963 E2.51693
G1 X-104.907 Y88.525 E2.58072
G1 X-87.820 Y105.612 E5.06894
G1 X-87.382 Y105.174 E5.13274
G1 X-104.468 Y88.087 E7.62096
G1 X-104.030 Y87.649 E7.68475
G1 X-86.944 Y104.736 E10.17297
G1 X-86.505 Y104.298 E10.23677
G1 X-103.592 Y87.211 E12.72499
G1 X-103.154 Y86.773 E12.78878
G1 X-86.067 Y103.860 E15.27700
G1 X-85.629 Y103.422 E15.34080
G1 X-102.716 Y86.335 E17.82902
G1 X-102.278 Y85.897 E17.89281
G1 X-85.191 Y102.983 E20.38104
G1 X-84.753 Y102.545 E20.44483
G1 X-101.840 Y85.458 E22.93305
G1 X-101.402 Y85.020 E22.99684
G1 X-84.315 Y102.107 E25.48507
G1 X-83.877 Y101.669 E25.54886
G1 X-100.964 Y84.582 E28.03708
G1 X-100.526 Y84.144 E28.10087
G1 X-83.439 Y101.231 E30.58910
G1 X-83.001 Y100.793 E30.65289
G1 X-100.088 Y83.706 E33.14111
G1 X-99.650 Y83.268 E33.20490
G1 X-82.563 Y100.355 E35.69313
G1 X-82.125 Y99.917 E35.75692
G1 X-99.212 Y82.830 E38.24514
G1 X-98.774 Y82.392 E38.30893
G1 X-81.687 Y99.479 E40.79716
G1 X-81.249 Y99.041 E40.86095
G1 X-98.336 Y81.954 E43.34917
G1 X-97.897 Y81.516 E43.41297
G1 X-80.613 Y98.800 E45.92990
G92 E0
G1 E-2.00000 F2400
G1 X-105.740 Y89.140 F12000
G1 E0.00000 F2400
;TYPE:Gap fill
;WIDTH:0.258087
G1 F1200
G1 X-105.678 Y89.203 E0.00257
G1 X-97.087 Y97.793 E0.35489
G1 X-88.497 Y106.383 E0.70721
G1 X-88.434 Y106.446 E0.70979
; INIT stop printing object patch_bed_leveling id:0 copy 0
;LAYER_CHANGE
;Z:0.575
;HEIGHT:0.2
; stop printing object patch_bed_leveling id:0 copy 0
M486 S-1
G1 Z0.575000 F12000
G10 P0 S190 ; set temperature
M140 S55 ; set bed temperature
; INIT printing object patch_bed_leveling id:0 copy 0
G92 E0
G1 E-2.00000 F2400
; printing object patch_bed_leveling id:0 copy 0
M486 S0
G1 X-105.794 Y89.777 F12000
G1 E0.00000 F2400
;TYPE:External perimeter
;WIDTH:0.52
G1 F1800
G1 X-106.447 Y89.124 E0.03836
G1 X-97.976 Y80.653 E0.53609
G1 X-97.323 Y81.306 E0.57445
G1 X-105.741 Y89.724 E1.06907
G1 X-105.923 Y89.294 F12000
; INIT stop printing object patch_bed_leveling id:0 copy 0
;LAYER_CHANGE
;Z:0.775
;HEIGHT:0.2
; stop printing object patch_bed_leveling id:0 copy 0
M486 S-1
G1 Z0.775000 F12000
; INIT printing object patch_bed_leveling id:0 copy 0
; printing object patch_bed_leveling id:0 copy 0
M486 S0
G1 X-105.795 Y89.670
G1 F600
G1 X-105.848 Y89.723 E1.07218
G1 X-106.501 Y89.070 E1.11055
G1 X-98.030 Y80.599 E1.60828
G1 X-97.377 Y81.252 E1.64664
G1 X-105.742 Y89.617 E2.13814
G1 X-105.868 Y89.650 F12000
; INIT stop printing object patch_bed_leveling id:0 copy 0
M106 S255
;LAYER_CHANGE
;Z:0.975
;HEIGHT:0.2
; stop printing object patch_bed_leveling id:0 copy 0
M486 S-1
G1 Z0.975000 F12000
; INIT printing object patch_bed_leveling id:0 copy 0
; printing object patch_bed_leveling id:0 copy 0
M486 S0
G1 X-105.797 Y89.562
G1 F600
G1 X-105.903 Y89.668 E2.14437
G1 X-106.556 Y89.015 E2.18273
G1 X-98.085 Y80.544 E2.68046
G1 X-97.432 Y81.197 E2.71883
G1 X-105.744 Y89.509 E3.20721
G1 X-105.942 Y89.523 F12000
; INIT stop printing object patch_bed_leveling id:0 copy 0
;LAYER_CHANGE
;Z:1.175
;HEIGHT:0.2
; stop printing object patch_bed_leveling id:0 copy 0
M486 S-1
G1 Z1.175000 F12000
; INIT printing object patch_bed_leveling id:0 copy 0
; printing object patch_bed_leveling id:0 copy 0
M486 S0
G1 X-105.798 Y89.455
G1 F600
G1 X-105.957 Y89.614 E3.21656
G1 X-106.610 Y88.961 E3.25492
G1 X-98.139 Y80.490 E3.75265
G1 X-97.486 Y81.143 E3.79101
G1 X-105.745 Y89.402 E4.27628
G1 X-106.015 Y89.397 F12000
; INIT stop printing object patch_bed_leveling id:0 copy 0
;LAYER_CHANGE
;Z:1.375
;HEIGHT:0.2
; stop printing object patch_bed_leveling id:0 copy 0
M486 S-1
G1 Z1.375000 F12000
; INIT printing object patch_bed_leveling id:0 copy 0
; printing object patch_bed_leveling id:0 copy 0
M486 S0
G1 X-106.012 Y89.559
G1 F600
G1 X-106.665 Y88.907 E4.31464
G1 X-98.193 Y80.435 E4.81237
G1 X-97.540 Y81.088 E4.85074
G1 X-105.959 Y89.506 E5.34535
G1 X-106.141 Y89.077 F12000
; INIT stop printing object patch_bed_leveling id:0 copy 0
;LAYER_CHANGE
;Z:1.575
;HEIGHT:0.2
; stop printing object patch_bed_leveling id:0 copy 0
M486 S-1
G1 Z1.575000 F12000
; INIT printing object patch_bed_leveling id:0 copy 0
; printing object patch_bed_leveling id:0 copy 0
M486 S0
G1 X-106.013 Y89.452
G1 F600
G1 X-106.066 Y89.505 E5.34847
G1 X-106.719 Y88.852 E5.38683
G1 X-98.248 Y80.381 E5.88456
G1 X-97.595 Y81.034 E5.92292
G1 X-105.960 Y89.399 E6.41442
G1 X-106.085 Y89.433 F12000
; INIT stop printing object patch_bed_leveling id:0 copy 0
;LAYER_CHANGE
;Z:1.775
;HEIGHT:0.2
; stop printing object patch_bed_leveling id:0 copy 0
M486 S-1
G1 Z1.775000 F12000
; INIT printing object patch_bed_leveling id:0 copy 0
; printing object patch_bed_leveling id:0 copy 0
M486 S0
G1 X-106.014 Y89.345
G1 F600
G1 X-106.120 Y89.451 E6.42065
G1 X-106.773 Y88.798 E6.45902
G1 X-98.302 Y80.327 E6.95675
G1 X-97.649 Y80.980 E6.99511
G1 X-105.961 Y89.292 E7.48349
G1 X-106.159 Y89.306 F12000
; INIT stop printing object patch_bed_leveling id:0 copy 0
;LAYER_CHANGE
;Z:1.975
;HEIGHT:0.2
; stop printing object patch_bed_leveling id:0 copy 0
M486 S-1
G1 Z1.975000 F12000
; INIT printing object patch_bed_leveling id:0 copy 0
; printing object patch_bed_leveling id:0 copy 0
M486 S0
G1 X-106.016 Y89.237
G1 F600
G1 X-106.175 Y89.396 E7.49284
G1 X-106.828 Y88.743 E7.53121
G1 X-98.357 Y80.272 E8.02894
G1 X-97.704 Y80.925 E8.06730
G1 X-105.963 Y89.184 E8.55257
G1 X-106.233 Y89.179 F12000
; INIT stop printing object patch_bed_leveling id:0 copy 0
;LAYER_CHANGE
;Z:2.175
;HEIGHT:0.2
; stop printing object patch_bed_leveling id:0 copy 0
M486 S-1
G1 Z2.175000 F12000
; INIT printing object patch_bed_leveling id:0 copy 0
; printing object patch_bed_leveling id:0 copy 0
M486 S0
G1 X-106.229 Y89.342
G1 F600
G1 X-106.882 Y88.689 E8.59093
G1 X-98.411 Y80.218 E9.08866
G1 X-97.758 Y80.871 E9.12703
G1 X-106.176 Y89.289 E9.62164
G1 X-106.359 Y88.859 F12000
; INIT stop printing object patch_bed_leveling id:0 copy 0
;LAYER_CHANGE
;Z:2.375
;HEIGHT:0.2
; stop printing object patch_bed_leveling id:0 copy 0
M486 S-1
G1 Z2.375000 F12000
; INIT printing object patch_bed_leveling id:0 copy 0
; printing object patch_bed_leveling id:0 copy 0
M486 S0
G1 X-106.231 Y89.234
G1 F600
G1 X-106.284 Y89.287 E9.62476
G1 X-106.937 Y88.634 E9.66312
G1 X-98.466 Y80.163 E10.16085
G1 X-97.813 Y80.816 E10.19922
G1 X-106.178 Y89.181 E10.69071
G1 X-106.303 Y89.215 F12000
; INIT stop printing object patch_bed_leveling id:0 copy 0
;LAYER_CHANGE
;Z:2.575
;HEIGHT:0.2
; stop printing object patch_bed_leveling id:0 copy 0
M486 S-1
G1 Z2.575000 F12000
; INIT printing object patch_bed_leveling id:0 copy 0
; printing object patch_bed_leveling id:0 copy 0
M486 S0
G1 X-106.232 Y89.127
G1 F600
G1 X-106.338 Y89.233 E10.69695
G1 X-106.991 Y88.580 E10.73531
G1 X-98.520 Y80.109 E11.23304
G1 X-97.867 Y80.762 E11.27141
G1 X-106.179 Y89.074 E11.75979
G1 X-106.377 Y89.088 F12000
; INIT stop printing object patch_bed_leveling id:0 copy 0
;LAYER_CHANGE
;Z:2.775
;HEIGHT:0.2
; stop printing object patch_bed_leveling id:0 copy 0
M486 S-1
G1 Z2.775000 F12000
; INIT printing object patch_bed_leveling id:0 copy 0
; printing object patch_bed_leveling id:0 copy 0
M486 S0
G1 X-106.234 Y89.019
G1 F600
G1 X-106.393 Y89.178 E11.76914
G1 X-107.046 Y88.526 E11.80750
G1 X-98.574 Y80.054 E12.30523
G1 X-97.922 Y80.707 E12.34360
G1 X-106.181 Y88.966 E12.82887
G1 X-106.451 Y88.961 F12000
; INIT stop printing object patch_bed_leveling id:0 copy 0
;LAYER_CHANGE
;Z:2.975
;HEIGHT:0.2
; stop printing object patch_bed_leveling id:0 copy 0
M486 S-1
G1 Z2.975000 F12000
; INIT printing object patch_bed_leveling id:0 copy 0
; printing object patch_bed_leveling id:0 copy 0
M486 S0
G1 X-106.447 Y89.124
G1 F600
G1 X-106.995 Y88.576 E12.86108
G1 X-98.524 Y80.105 E13.35881
G1 X-97.976 Y80.653 E13.39102
G1 X-106.394 Y89.071 E13.88564
G1 X-106.576 Y88.641 F12000
; INIT stop printing object patch_bed_leveling id:0 copy 0
;LAYER_CHANGE
;Z:3.175
;HEIGHT:0.2
; stop printing object patch_bed_leveling id:0 copy 0
M486 S-1
G1 Z3.175000 F12000
; INIT printing object patch_bed_leveling id:0 copy 0
; printing object patch_bed_leveling id:0 copy 0
M486 S0
G1 X-106.502 Y89.070
G1 F600
G1 X-106.832 Y88.739 E13.90506
G1 X-98.361 Y80.268 E14.40279
G1 X-98.030 Y80.598 E14.42221
G1 X-106.448 Y89.017 E14.91683
G1 X-106.622 Y88.618 F12000
; INIT stop printing object patch_bed_leveling id:0 copy 0
;LAYER_CHANGE
;Z:3.375
;HEIGHT:0.2
; stop printing object patch_bed_leveling id:0 copy 0
M486 S-1
G1 Z3.375000 F12000
; INIT printing object patch_bed_leveling id:0 copy 0
; printing object patch_bed_leveling id:0 copy 0
M486 S0
G1 X-106.503 Y88.962
G1 F600
G1 X-106.556 Y89.015 E14.91994
G1 X-106.669 Y88.902 E14.92657
G1 X-98.198 Y80.431 E15.42430
G1 X-98.085 Y80.544 E15.43093
G1 X-106.450 Y88.909 E15.92243
G1 X-106.575 Y88.943 F12000
; INIT stop printing object patch_bed_leveling id:0 copy 0
;LAYER_CHANGE
;Z:3.575
;HEIGHT:0.2
; stop printing object patch_bed_leveling id:0 copy 0
M486 S-1
G1 Z3.575000 F12000
; INIT printing object patch_bed_leveling id:0 copy 0
G92 E0
G1 E-2.00000 F2400
; printing object patch_bed_leveling id:0 copy 0
M486 S0
G1 X-97.903 Y80.358 F12000
G1 E0.00000 F2400
;TYPE:Thin wall
;WIDTH:0.1
G1 F600
G1 X-97.929 Y80.385 E0.00014
;WIDTH:0.2

G1 X-97.955 Y80.411 E0.00057
;WIDTH:0.3

G1 X-97.982 Y80.437 E0.00132
;WIDTH:0.4

G1 X-98.008 Y80.463 E0.00239
;WIDTH:0.5

G1 X-98.034 Y80.490 E0.00387
G1 X-106.610 Y89.066 E0.48657
G1 X-106.624 Y89.079 E0.48731
;WIDTH:0.4

G1 X-106.650 Y89.105 E0.48854
;WIDTH:0.3

G1 X-106.676 Y89.131 E0.48945
;WIDTH:0.2

G1 X-106.702 Y89.158 E0.49004
;WIDTH:0.1

G1 X-106.729 Y89.184 E0.49031
; INIT stop printing object patch_bed_leveling id:0 copy 0
G92 E0
G1 E-2.00000 F2400
G92 E0
; stop printing object patch_bed_leveling id:0 copy 0
M486 S-1
G1 X93.550 Y-93.550 F12000
M140 S60 ; set bed temperature
G10 P0 S200 ; set temperature
M107
;LAYER_CHANGE
;Z:0.375
;HEIGHT:0.375
G1 Z0.375000 F12000
G1 X84.732 Y-84.724
G1 E2.00000 F2400
;TYPE:Skirt
;WIDTH:0.55
G1 F1800
G1 X75.839 Y-93.608 E2.96377
G1 X74.942 Y-94.820 E3.07935
G1 X74.363 Y-96.205 E3.19447
G1 X74.131 Y-97.744 E3.31381
G1 X74.286 Y-99.287 E3.43269
G1 X74.817 Y-100.744 E3.55156
G1 X75.695 Y-102.029 E3.67090
G1 X85.280 Y-111.582 E4.70838
G1 X86.157 Y-112.177 E4.78963
G1 X87.122 Y-112.614 E4.87088
G1 X88.148 Y-112.881 E4.95213
G1 X89.210 Y-112.971 E5.03384
G1 X90.375 Y-112.860 E5.12357
G1 X91.499 Y-112.533 E5.21330
G1 X92.547 Y-111.998 E5.30350
G1 X93.471 Y-111.281 E5.39322
G1 X111.966 Y-92.787 E7.39846
G1 X112.861 Y-91.580 E7.51358
G1 X113.442 Y-90.189 E7.62916
G1 X113.672 Y-88.737 E7.74193
G1 X113.553 Y-87.264 E7.85517
G1 X113.094 Y-85.867 E7.96794
G1 X112.321 Y-84.616 E8.08071
G1 X102.802 Y-75.050 E9.11535
G1 X101.627 Y-74.206 E9.22624
G1 X100.295 Y-73.658 E9.33666
G1 X98.774 Y-73.426 E9.45460
G1 X97.243 Y-73.574 E9.57253
G1 X95.795 Y-74.092 E9.69047
G1 X94.513 Y-74.953 E9.80887
G1 X84.785 Y-84.671 E10.86301
; INIT printing object patch_bed_leveling id:1 copy 0
G92 E0
G1 E-2.00000 F2400
; printing object patch_bed_leveling id:1 copy 0
M486 S1
G1 X89.435 Y-89.321 F12000
G1 E0.00000 F2400
;TYPE:External perimeter
;WIDTH:0.7
G1 F1800
G1 X80.859 Y-97.897 E1.22700
G1 X89.203 Y-106.241 E2.42067
G1 X106.947 Y-88.497 E4.95916
G1 X98.603 Y-80.153 E6.15284
G1 X89.488 Y-89.268 E7.45674
G1 X89.565 Y-89.804 F12000
G92 E0
G1 E-2.00000 F2400
G1 X106.487 Y-88.300 F12000
G1 E0.00000 F2400
;TYPE:Solid infill
;WIDTH:0.712527
G1 F1200
G1 X89.203 Y-105.584 E2.51693
G1 X88.764 Y-105.146 E2.58072
G1 X105.851 Y-88.059 E5.06894
G1 X105.413 Y-87.621 E5.13274
G1 X88.326 Y-104.708 E7.62096
G1 X87.888 Y-104.270 E7.68475
