; generated by PrusaSlicer 2.2.0+ on 2020-09-18 at 23:12:35 UTC

; 

; external perimeters extrusion width = 0.56mm
; perimeters extrusion width = 0.56mm
; infill extrusion width = 0.56mm
; solid infill extrusion width = 0.56mm
; top infill extrusion width = 0.56mm
; first layer extrusion width = 0.70mm

M107
G28 ; home all axes
M104 S200 ; set extruder temp
M140 S70 ; set bed temp
M190 S70 ; wait for bed temp
M109 S200 ; wait for extruder temp
T0 
G1 E160 F2500 ; load to nozzle
M400 ; wait for movement to finish


G21 ; set units to millimeters
G90 ; use absolute coordinates
M83 ; use relative distances for extrusion
; Filament init gcode
; END Filament init gcode
G1 Z0.200 F12000.000
G1 E-6.00000 F1500.00000
G1 X8.305 Y106.931 F12000.000
G1 E6.00000 F1500.00000
G1 F2700.000
G1 X-52.753 Y111.674 E3.50443
G1 X-55.636 Y111.523 E0.16519
G1 X-58.250 Y111.041 E0.15210
G1 X-61.020 Y110.145 E0.16662
G1 X-63.421 Y109.004 E0.15210
G1 X-65.660 Y107.573 E0.15202
G1 X-67.889 Y105.698 E0.16670
G1 X-69.683 Y103.736 E0.15210
G1 X-71.348 Y101.355 E0.16626
G1 X-125.897 Y10.397 E6.06906
G1 X-126.579 Y9.061 E0.08584
G1 X-127.160 Y7.692 E0.08513
G1 X-127.647 Y6.279 E0.08549
G1 X-128.032 Y4.842 E0.08513
G1 X-128.316 Y3.382 E0.08513
G1 X-128.497 Y1.905 E0.08513
G1 X-128.575 Y0.420 E0.08513
G1 X-128.548 Y-1.080 E0.08584
G1 X-128.322 Y-3.244 E0.12447
G1 X-127.931 Y-5.161 E0.11199
G1 X-127.290 Y-7.248 E0.12491
G1 X-126.431 Y-9.273 E0.12589
G1 X-78.452 Y-104.835 E6.11879
G1 X-77.723 Y-106.154 E0.08624
G1 X-76.215 Y-108.343 E0.15211
G1 X-74.288 Y-110.484 E0.16484
G1 X-72.273 Y-112.209 E0.15175
G1 X-70.056 Y-113.672 E0.15202
G1 X-67.476 Y-114.930 E0.16422
G1 X-64.957 Y-115.776 E0.15210
G1 X-62.099 Y-116.335 E0.16661
G1 X-59.440 Y-116.500 E0.15246
G1 X53.225 Y-111.243 E6.45397
G1 X55.176 Y-111.020 E0.11235
G1 X57.346 Y-110.554 E0.12704
G1 X59.432 Y-109.873 E0.12553
G1 X61.453 Y-108.974 E0.12660
G1 X63.402 Y-107.849 E0.12873
G1 X65.240 Y-106.510 E0.13015
G1 X67.085 Y-104.819 E0.14324
G1 X68.568 Y-103.119 E0.12908
G1 X130.759 Y-21.281 E5.88167
G1 X132.009 Y-19.432 E0.12774
G1 X133.222 Y-17.102 E0.15034
G1 X134.145 Y-14.622 E0.15139
G1 X134.792 Y-11.821 E0.16449
G1 X135.049 Y-9.188 E0.15139
G1 X134.980 Y-6.574 E0.14963
G1 X134.585 Y-3.954 E0.15166
G1 X133.793 Y-1.195 E0.16422
G1 X132.742 Y1.233 E0.15140
G1 X78.516 Y92.791 E6.08907
G1 X77.030 Y94.881 E0.14679
G1 X75.470 Y96.613 E0.13334
G1 X73.552 Y98.306 E0.14643
G1 X71.428 Y99.766 E0.14750
G1 X69.397 Y100.844 E0.13157
G1 X67.032 Y101.773 E0.14537
G1 X64.823 Y102.363 E0.13085
G1 X62.347 Y102.734 E0.14324
G1 X8.380 Y106.925 E3.09744
G1 X8.329 Y106.271 F12000.000
G1 F2700.000
G1 X-52.754 Y111.016 E3.50584
G1 X-55.561 Y110.870 E0.16088
G1 X-58.088 Y110.405 E0.14701
G1 X-60.780 Y109.533 E0.16189
G1 X-63.100 Y108.430 E0.14701
G1 X-65.269 Y107.045 E0.14728
G1 X-67.435 Y105.223 E0.16196
G1 X-69.169 Y103.327 E0.14701
G1 X-70.780 Y101.023 E0.16088
G1 X-125.318 Y10.086 E6.06774
G1 X-125.985 Y8.781 E0.08385
G1 X-126.548 Y7.454 E0.08250
G1 X-127.018 Y6.090 E0.08251
G1 X-127.391 Y4.698 E0.08251
G1 X-127.666 Y3.282 E0.08250
G1 X-127.842 Y1.851 E0.08250
G1 X-127.918 Y0.411 E0.08251
G1 X-127.893 Y-1.030 E0.08251
G1 X-127.673 Y-3.140 E0.12138
G1 X-127.295 Y-4.997 E0.10843
G1 X-126.674 Y-7.020 E0.12111
G1 X-125.837 Y-8.994 E0.12272
G1 X-77.865 Y-104.540 E6.11777
G1 X-77.164 Y-105.808 E0.08294
G1 X-75.701 Y-107.934 E0.14768
G1 X-73.828 Y-110.015 E0.16021
G1 X-71.880 Y-111.682 E0.14667
G1 X-69.732 Y-113.100 E0.14728
G1 X-67.225 Y-114.323 E0.15961
G1 X-64.784 Y-115.142 E0.14734
G1 X-62.013 Y-115.683 E0.16156
G1 X-59.443 Y-115.843 E0.14734
G1 X53.185 Y-110.587 E6.45186
G1 X55.326 Y-110.329 E0.12339
G1 X57.177 Y-109.919 E0.10849
G1 X59.193 Y-109.261 E0.12137
G1 X61.153 Y-108.389 E0.12272
G1 X63.041 Y-107.300 E0.12473
G1 X64.822 Y-106.003 E0.12608
G1 X66.616 Y-104.358 E0.13929
G1 X68.053 Y-102.711 E0.12507
G1 X130.235 Y-20.884 E5.88091
G1 X131.441 Y-19.100 E0.12322
G1 X132.621 Y-16.838 E0.14600
G1 X133.515 Y-14.436 E0.14667
G1 X134.144 Y-11.713 E0.15988
G1 X134.392 Y-9.162 E0.14667
G1 X134.323 Y-6.600 E0.14668
G1 X133.887 Y-3.840 E0.15988
G1 X133.162 Y-1.382 E0.14667
G1 X132.152 Y0.942 E0.14500
G1 X77.961 Y92.440 E6.08514
G1 X76.516 Y94.472 E0.14264
G1 X75.010 Y96.144 E0.12876
G1 X73.150 Y97.786 E0.14197
G1 X71.096 Y99.199 E0.14265
G1 X69.124 Y100.246 E0.12776
G1 X66.826 Y101.149 E0.14130
G1 X64.686 Y101.721 E0.12675
G1 X62.279 Y102.080 E0.13929
G1 X8.404 Y106.266 E3.09212
G1 E-5.70000 F1500.00000
G1 F9600.000
G1 X6.490 Y106.414 E-0.28500
G1 E-0.01500 F1500.00000
G1 X-58.452 Y-82.548 F12000.000
G1 E6.00000 F1500.00000
G1 F2700.000
G1 X-59.000 Y-82.516 E0.03142
G1 X-59.668 Y-82.510 E0.03821
G1 X-60.331 Y-82.539 E0.03798
G1 X-60.996 Y-82.603 E0.03821
G1 X-62.079 Y-82.784 E0.06283
G1 X-62.728 Y-82.940 E0.03821
G1 X-63.364 Y-83.129 E0.03798
G1 X-63.994 Y-83.352 E0.03821
G1 X-64.502 Y-83.560 E0.03142
G1 X-65.001 Y-83.789 E0.03142
G1 X-65.593 Y-84.098 E0.03821
G1 X-66.165 Y-84.435 E0.03798
G1 X-66.722 Y-84.803 E0.03821
G1 X-67.593 Y-85.472 E0.06283
G1 X-68.093 Y-85.914 E0.03821
G1 X-68.574 Y-86.386 E0.03856
G1 X-69.299 Y-87.208 E0.06271
G1 X-69.703 Y-87.734 E0.03798
G1 X-70.079 Y-88.281 E0.03798
G1 X-70.426 Y-88.847 E0.03798
G1 X-70.743 Y-89.431 E0.03798
G1 X-71.029 Y-90.030 E0.03798
G1 X-71.283 Y-90.643 E0.03798
G1 X-71.504 Y-91.268 E0.03798
G1 X-71.696 Y-91.915 E0.03856
G1 X-71.932 Y-92.985 E0.06271
G1 X-72.030 Y-93.641 E0.03798
G1 X-72.095 Y-94.312 E0.03856
G1 X-72.123 Y-95.407 E0.06271
G1 X-72.094 Y-96.071 E0.03798
G1 X-72.029 Y-96.741 E0.03856
G1 X-71.848 Y-97.822 E0.06271
G1 X-71.693 Y-98.467 E0.03798
G1 X-71.504 Y-99.104 E0.03798
G1 X-71.283 Y-99.730 E0.03798
G1 X-71.025 Y-100.352 E0.03856
G1 X-70.535 Y-101.333 E0.06271
G1 X-70.198 Y-101.904 E0.03798
G1 X-69.826 Y-102.466 E0.03856
G1 X-69.159 Y-103.335 E0.06271
G1 X-68.719 Y-103.833 E0.03798
G1 X-68.247 Y-104.313 E0.03856
G1 X-67.425 Y-105.039 E0.06271
G1 X-66.899 Y-105.443 E0.03798
G1 X-66.352 Y-105.819 E0.03798
G1 X-65.786 Y-106.166 E0.03798
G1 X-65.202 Y-106.482 E0.03798
G1 X-64.603 Y-106.768 E0.03798
G1 X-63.990 Y-107.022 E0.03798
G1 X-63.364 Y-107.244 E0.03798
G1 X-62.728 Y-107.432 E0.03798
G1 X-61.658 Y-107.670 E0.06271
G1 X-60.992 Y-107.770 E0.03856
G1 X-60.321 Y-107.834 E0.03856
G1 X-59.225 Y-107.862 E0.06271
G1 X-58.562 Y-107.833 E0.03798
G1 X-57.902 Y-107.770 E0.03798
G1 X-57.245 Y-107.672 E0.03798
G1 X-56.595 Y-107.539 E0.03798
G1 X-55.952 Y-107.373 E0.03798
G1 X-55.310 Y-107.170 E0.03856
G1 X-54.281 Y-106.764 E0.06329
G1 X-53.300 Y-106.275 E0.06271
G1 X-52.728 Y-105.938 E0.03798
G1 X-52.167 Y-105.566 E0.03856
G1 X-51.298 Y-104.898 E0.06271
G1 X-50.800 Y-104.458 E0.03798
G1 X-50.320 Y-103.986 E0.03856
G1 X-49.594 Y-103.165 E0.06271
G1 X-49.190 Y-102.638 E0.03798
G1 X-48.814 Y-102.091 E0.03798
G1 X-48.467 Y-101.525 E0.03798
G1 X-48.151 Y-100.942 E0.03798
G1 X-47.863 Y-100.339 E0.03821
G1 X-47.651 Y-99.833 E0.03142
G1 X-47.461 Y-99.318 E0.03142
G1 X-47.260 Y-98.681 E0.03821
G1 X-47.094 Y-98.038 E0.03798
G1 X-46.961 Y-97.388 E0.03798
G1 X-46.863 Y-96.727 E0.03821
G1 X-46.808 Y-96.181 E0.03142
G1 X-46.777 Y-95.633 E0.03142
G1 X-46.771 Y-94.965 E0.03821
G1 X-46.800 Y-94.302 E0.03798
G1 X-46.864 Y-93.637 E0.03821
G1 X-47.045 Y-92.554 E0.06283
G1 X-47.201 Y-91.905 E0.03821
G1 X-47.389 Y-91.268 E0.03798
G1 X-47.612 Y-90.639 E0.03821
G1 X-47.821 Y-90.131 E0.03142
G1 X-48.050 Y-89.632 E0.03142
G1 X-48.358 Y-89.040 E0.03821
G1 X-48.695 Y-88.468 E0.03798
G1 X-49.064 Y-87.911 E0.03821
G1 X-49.732 Y-87.040 E0.06283
G1 X-50.175 Y-86.540 E0.03821
G1 X-50.640 Y-86.066 E0.03798
G1 X-51.129 Y-85.618 E0.03798
G1 X-51.641 Y-85.196 E0.03798
G1 X-52.178 Y-84.799 E0.03821
G1 X-52.635 Y-84.494 E0.03142
G1 X-53.104 Y-84.209 E0.03142
G1 X-53.691 Y-83.890 E0.03821
G1 X-54.290 Y-83.604 E0.03798
G1 X-54.903 Y-83.350 E0.03798
G1 X-55.529 Y-83.129 E0.03798
G1 X-56.169 Y-82.939 E0.03821
G1 X-57.241 Y-82.701 E0.06283
G1 X-57.906 Y-82.602 E0.03845
G1 X-58.377 Y-82.555 E0.02713
G1 X-58.401 Y-81.892 F12000.000
G1 F2700.000
G1 X-58.978 Y-81.859 E0.03313
G1 X-59.679 Y-81.853 E0.04012
G1 X-60.377 Y-81.883 E0.03995
G1 X-61.075 Y-81.951 E0.04012
G1 X-62.216 Y-82.142 E0.06624
G1 X-62.898 Y-82.305 E0.04012
G1 X-63.568 Y-82.504 E0.03995
G1 X-64.228 Y-82.738 E0.04012
G1 X-64.764 Y-82.957 E0.03313
G1 X-65.290 Y-83.199 E0.03313
G1 X-65.912 Y-83.523 E0.04012
G1 X-66.513 Y-83.877 E0.03995
G1 X-67.098 Y-84.264 E0.04012
G1 X-68.016 Y-84.969 E0.06624
G1 X-68.541 Y-85.433 E0.04012
G1 X-69.045 Y-85.928 E0.04037
G1 X-69.810 Y-86.794 E0.06615
G1 X-70.235 Y-87.348 E0.03995
G1 X-70.631 Y-87.923 E0.03995
G1 X-70.995 Y-88.519 E0.03995
G1 X-71.329 Y-89.132 E0.03995
G1 X-71.629 Y-89.762 E0.03995
G1 X-71.896 Y-90.407 E0.03995
G1 X-72.129 Y-91.065 E0.03995
G1 X-72.330 Y-91.742 E0.04037
G1 X-72.579 Y-92.871 E0.06615
G1 X-72.683 Y-93.561 E0.03995
G1 X-72.750 Y-94.263 E0.04037
G1 X-72.780 Y-95.419 E0.06616
G1 X-72.750 Y-96.116 E0.03995
G1 X-72.682 Y-96.819 E0.04037
G1 X-72.491 Y-97.959 E0.06615
G1 X-72.328 Y-98.638 E0.03995
G1 X-72.129 Y-99.307 E0.03995
G1 X-71.896 Y-99.965 E0.03995
G1 X-71.626 Y-100.617 E0.04037
G1 X-71.110 Y-101.651 E0.06616
G1 X-70.756 Y-102.253 E0.03995
G1 X-70.366 Y-102.841 E0.04037
G1 X-69.662 Y-103.758 E0.06616
G1 X-69.200 Y-104.281 E0.03995
G1 X-68.705 Y-104.784 E0.04037
G1 X-67.839 Y-105.550 E0.06615
G1 X-67.285 Y-105.975 E0.03995
G1 X-66.710 Y-106.370 E0.03995
G1 X-66.114 Y-106.735 E0.03995
G1 X-65.501 Y-107.068 E0.03995
G1 X-64.871 Y-107.369 E0.03995
G1 X-64.226 Y-107.636 E0.03995
G1 X-63.568 Y-107.869 E0.03995
G1 X-62.898 Y-108.067 E0.03995
G1 X-61.770 Y-108.318 E0.06616
G1 X-61.072 Y-108.422 E0.04037
G1 X-60.370 Y-108.490 E0.04037
G1 X-59.214 Y-108.519 E0.06616
G1 X-58.517 Y-108.489 E0.03995
G1 X-57.822 Y-108.422 E0.03995
G1 X-57.131 Y-108.319 E0.03995
G1 X-56.447 Y-108.180 E0.03995
G1 X-55.771 Y-108.005 E0.03995
G1 X-55.098 Y-107.793 E0.04037
G1 X-54.016 Y-107.366 E0.06657
G1 X-52.982 Y-106.849 E0.06616
G1 X-52.380 Y-106.495 E0.03995
G1 X-51.792 Y-106.106 E0.04037
G1 X-50.875 Y-105.402 E0.06616
G1 X-50.352 Y-104.939 E0.03995
G1 X-49.849 Y-104.445 E0.04037
G1 X-49.083 Y-103.578 E0.06615
G1 X-48.658 Y-103.024 E0.03995
G1 X-48.263 Y-102.449 E0.03995
G1 X-47.898 Y-101.854 E0.03995
G1 X-47.565 Y-101.240 E0.03995
G1 X-47.263 Y-100.608 E0.04012
G1 X-47.040 Y-100.073 E0.03313
G1 X-46.839 Y-99.531 E0.03313
G1 X-46.628 Y-98.862 E0.04012
G1 X-46.453 Y-98.186 E0.03995
G1 X-46.314 Y-97.502 E0.03995
G1 X-46.210 Y-96.808 E0.04012
G1 X-46.153 Y-96.232 E0.03313
G1 X-46.120 Y-95.654 E0.03313
G1 X-46.114 Y-94.953 E0.04012
G1 X-46.144 Y-94.256 E0.03995
G1 X-46.211 Y-93.558 E0.04012
G1 X-46.402 Y-92.416 E0.06624
G1 X-46.566 Y-91.735 E0.04012
G1 X-46.764 Y-91.065 E0.03995
G1 X-46.998 Y-90.405 E0.04012
G1 X-47.218 Y-89.869 E0.03313
G1 X-47.460 Y-89.343 E0.03313
G1 X-47.783 Y-88.721 E0.04012
G1 X-48.138 Y-88.120 E0.03995
G1 X-48.525 Y-87.535 E0.04012
G1 X-49.229 Y-86.617 E0.06624
G1 X-49.694 Y-86.092 E0.04012
G1 X-50.183 Y-85.594 E0.03995
G1 X-50.698 Y-85.122 E0.03995
G1 X-51.237 Y-84.678 E0.03995
G1 X-51.800 Y-84.261 E0.04012
G1 X-52.282 Y-83.940 E0.03313
G1 X-52.777 Y-83.639 E0.03313
G1 X-53.393 Y-83.304 E0.04012
G1 X-54.023 Y-83.004 E0.03995
G1 X-54.668 Y-82.737 E0.03995
G1 X-55.326 Y-82.504 E0.03995
G1 X-55.998 Y-82.304 E0.04012
G1 X-57.128 Y-82.054 E0.06624
G1 X-57.824 Y-81.950 E0.04028
G1 X-58.326 Y-81.900 E0.02883
G1 X-58.335 Y-81.239 F12000.000
G1 F2700.000
G1 X-58.957 Y-81.202 E0.03562
G1 X-59.691 Y-81.196 E0.04202
G1 X-60.423 Y-81.228 E0.04192
G1 X-61.154 Y-81.298 E0.04202
G1 X-61.756 Y-81.386 E0.03483
G1 X-62.354 Y-81.499 E0.03483
G1 X-63.068 Y-81.670 E0.04202
G1 X-63.771 Y-81.878 E0.04192
G1 X-64.463 Y-82.124 E0.04202
G1 X-65.026 Y-82.355 E0.03483
G1 X-65.579 Y-82.609 E0.03483
G1 X-66.230 Y-82.948 E0.04202
G1 X-66.862 Y-83.320 E0.04192
G1 X-67.474 Y-83.725 E0.04202
G1 X-67.965 Y-84.085 E0.03483
G1 X-68.440 Y-84.466 E0.03483
G1 X-68.990 Y-84.953 E0.04202
G1 X-69.515 Y-85.469 E0.04217
G1 X-69.842 Y-85.820 E0.02745
G1 X-70.321 Y-86.380 E0.04217
G1 X-70.767 Y-86.962 E0.04192
G1 X-71.182 Y-87.565 E0.04192
G1 X-71.565 Y-88.190 E0.04192
G1 X-71.914 Y-88.834 E0.04192
G1 X-72.230 Y-89.495 E0.04192
G1 X-72.510 Y-90.172 E0.04192
G1 X-72.754 Y-90.862 E0.04192
G1 X-72.964 Y-91.569 E0.04217
G1 X-73.080 Y-92.034 E0.02745
G1 X-73.227 Y-92.756 E0.04217
G1 X-73.335 Y-93.481 E0.04192
G1 X-73.406 Y-94.214 E0.04217
G1 X-73.431 Y-94.693 E0.02745
G1 X-73.437 Y-95.430 E0.04217
G1 X-73.405 Y-96.162 E0.04192
G1 X-73.335 Y-96.896 E0.04217
G1 X-73.268 Y-97.371 E0.02745
G1 X-73.134 Y-98.095 E0.04217
G1 X-72.963 Y-98.808 E0.04192
G1 X-72.754 Y-99.510 E0.04192
G1 X-72.510 Y-100.201 E0.04192
G1 X-72.228 Y-100.882 E0.04217
G1 X-72.025 Y-101.316 E0.02745
G1 X-71.685 Y-101.970 E0.04217
G1 X-71.313 Y-102.601 E0.04192
G1 X-70.906 Y-103.216 E0.04217
G1 X-70.624 Y-103.604 E0.02745
G1 X-70.166 Y-104.180 E0.04217
G1 X-69.680 Y-104.729 E0.04192
G1 X-69.164 Y-105.255 E0.04217
G1 X-68.813 Y-105.582 E0.02745
G1 X-68.253 Y-106.060 E0.04217
G1 X-67.671 Y-106.506 E0.04192
G1 X-67.068 Y-106.921 E0.04192
G1 X-66.443 Y-107.304 E0.04192
G1 X-65.799 Y-107.654 E0.04192
G1 X-65.138 Y-107.969 E0.04192
G1 X-64.461 Y-108.249 E0.04192
G1 X-63.771 Y-108.494 E0.04192
G1 X-63.068 Y-108.702 E0.04192
G1 X-62.352 Y-108.874 E0.04217
G1 X-61.881 Y-108.966 E0.02745
G1 X-61.152 Y-109.074 E0.04217
G1 X-60.418 Y-109.145 E0.04217
G1 X-59.939 Y-109.170 E0.02745
G1 X-59.203 Y-109.177 E0.04217
G1 X-58.471 Y-109.145 E0.04192
G1 X-57.741 Y-109.074 E0.04192
G1 X-57.017 Y-108.966 E0.04192
G1 X-56.299 Y-108.820 E0.04192
G1 X-55.590 Y-108.637 E0.04192
G1 X-54.887 Y-108.415 E0.04217
G1 X-54.436 Y-108.251 E0.02745
G1 X-53.751 Y-107.967 E0.04242
G1 X-53.317 Y-107.765 E0.02745
G1 X-52.663 Y-107.424 E0.04217
G1 X-52.032 Y-107.053 E0.04192
G1 X-51.417 Y-106.646 E0.04217
G1 X-51.029 Y-106.364 E0.02745
G1 X-50.453 Y-105.905 E0.04217
G1 X-49.904 Y-105.420 E0.04192
G1 X-49.378 Y-104.903 E0.04217
G1 X-49.051 Y-104.552 E0.02745
G1 X-48.572 Y-103.992 E0.04217
G1 X-48.127 Y-103.411 E0.04192
G1 X-47.712 Y-102.807 E0.04192
G1 X-47.329 Y-102.182 E0.04192
G1 X-46.979 Y-101.539 E0.04192
G1 X-46.663 Y-100.876 E0.04202
G1 X-46.428 Y-100.314 E0.03483
G1 X-46.217 Y-99.743 E0.03483
G1 X-45.996 Y-99.043 E0.04202
G1 X-45.813 Y-98.334 E0.04192
G1 X-45.667 Y-97.616 E0.04192
G1 X-45.558 Y-96.890 E0.04202
G1 X-45.498 Y-96.284 E0.03483
G1 X-45.463 Y-95.676 E0.03483
G1 X-45.456 Y-94.942 E0.04202
G1 X-45.488 Y-94.210 E0.04192
G1 X-45.559 Y-93.479 E0.04202
G1 X-45.647 Y-92.877 E0.03483
G1 X-45.760 Y-92.279 E0.03483
G1 X-45.931 Y-91.565 E0.04202
G1 X-46.139 Y-90.862 E0.04192
G1 X-46.384 Y-90.170 E0.04202
G1 X-46.615 Y-89.607 E0.03483
G1 X-46.869 Y-89.054 E0.03483
G1 X-47.209 Y-88.402 E0.04202
G1 X-47.580 Y-87.771 E0.04192
G1 X-47.986 Y-87.159 E0.04202
G1 X-48.346 Y-86.668 E0.03483
G1 X-48.727 Y-86.193 E0.03483
G1 X-49.213 Y-85.643 E0.04202
G1 X-49.727 Y-85.121 E0.04192
G1 X-50.267 Y-84.626 E0.04192
G1 X-50.832 Y-84.160 E0.04192
G1 X-51.422 Y-83.723 E0.04202
G1 X-51.929 Y-83.385 E0.03483
G1 X-52.449 Y-83.069 E0.03483
G1 X-53.094 Y-82.719 E0.04202
G1 X-53.755 Y-82.403 E0.04192
G1 X-54.432 Y-82.123 E0.04192
G1 X-55.123 Y-81.878 E0.04192
G1 X-55.827 Y-81.670 E0.04202
G1 X-56.418 Y-81.526 E0.03483
G1 X-57.015 Y-81.406 E0.03483
G1 X-57.743 Y-81.298 E0.04212
G1 X-58.261 Y-81.246 E0.02975
G1 X-58.270 Y-80.585 F12000.000
G1 F2700.000
G1 X-58.935 Y-80.545 E0.03811
G1 X-59.702 Y-80.539 E0.04392
G1 X-60.469 Y-80.572 E0.04389
G1 X-61.233 Y-80.646 E0.04392
G1 X-61.865 Y-80.738 E0.03654
G1 X-62.492 Y-80.856 E0.03654
G1 X-63.238 Y-81.035 E0.04392
G1 X-63.974 Y-81.253 E0.04389
G1 X-64.697 Y-81.510 E0.04392
G1 X-65.288 Y-81.752 E0.03654
G1 X-65.868 Y-82.019 E0.03654
G1 X-66.549 Y-82.373 E0.04392
G1 X-67.210 Y-82.762 E0.04389
G1 X-67.850 Y-83.186 E0.04392
G1 X-68.365 Y-83.564 E0.03654
G1 X-68.863 Y-83.963 E0.03654
G1 X-69.438 Y-84.472 E0.04392
G1 X-69.986 Y-85.011 E0.04398
G1 X-70.333 Y-85.382 E0.02909
G1 X-70.832 Y-85.967 E0.04398
G1 X-71.299 Y-86.575 E0.04389
G1 X-71.733 Y-87.207 E0.04389
